X:7
T:Menuet
B:XVIIIeme
M:3/4
L:1/4
Q:C4=60
K:Am
A>G A/B/ | c B c | A G A | B/A/ B/c/ B |
A>G A/B/ | c B c | A G A | B3 :|
|: B e B | c A/B/ c | B c/B/ A/G/ | A/G/ A/B/ A |
B e B | c A/B/ c | B c/B/ A/G/ | A3 :|
